packages/icons/src/width.svg

<svg width="15" height="15" viewBox="0 0 15 15" fill="none" xmlns="http://www.w3.org/2000/svg">
  <path
    fill-rule="evenodd"
    clip-rule="evenodd"
    d="M4.81812 4.68161C4.99386 4.85734 4.99386 5.14227 4.81812 5.318L3.08632 7.0498H11.9135L10.1817 5.318C10.006 5.14227 10.006 4.85734 10.1817 4.68161C10.3575 4.50587 10.6424 4.50587 10.8181 4.68161L13.3181 7.18161C13.4939 7.35734 13.4939 7.64227 13.3181 7.818L10.8181 10.318C10.6424 10.4937 10.3575 10.4937 10.1817 10.318C10.006 10.1423 10.006 9.85734 10.1817 9.68161L11.9135 7.9498H3.08632L4.81812 9.68161C4.99386 9.85734 4.99386 10.1423 4.81812 10.318C4.64239 10.4937 4.35746 10.4937 4.18173 10.318L1.68173 7.818C1.50599 7.64227 1.50599 7.35734 1.68173 7.18161L4.18173 4.68161C4.35746 4.50587 4.64239 4.50587 4.81812 4.68161Z"
    fill="currentColor"
  />
</svg>

<svg xmlns="http://www.w3.org/2000/svg" width="15" height="15" fill="none"><path fill="currentColor" fill-rule="evenodd" d="M4.818 4.682a.45.45 0 0 1 0 .636L3.086 7.05h8.828l-1.732-1.732a.45.45 0 0 1 .636-.636l2.5 2.5a.45.45 0 0 1 0 .636l-2.5 2.5a.45.45 0 0 1-.636-.636l1.732-1.732H3.086l1.732 1.732a.45.45 0 1 1-.636.636l-2.5-2.5a.45.45 0 0 1 0-.636l2.5-2.5a.45.45 0 0 1 .636 0" clip-rule="evenodd"/></svg>
